Numix-GalliumOS/32/mimetypes/text-x-lilypond.svg

<?xml version="1.0" encoding="UTF-8" standalone="no"?>
<svg
   xmlns:dc="http://purl.org/dc/elements/1.1/"
   xmlns:cc="http://creativecommons.org/ns#"
   xmlns:rdf="http://www.w3.org/1999/02/22-rdf-syntax-ns#"
   xmlns:svg="http://www.w3.org/2000/svg"
   xmlns="http://www.w3.org/2000/svg"
   xmlns:sodipodi="http://sodipodi.sourceforge.net/DTD/sodipodi-0.dtd"
   xmlns:inkscape="http://www.inkscape.org/namespaces/inkscape"
   width="32"
   height="32"
   viewBox="0 0 32 32"
   id="svg2"
   version="1.1"
   inkscape:version="0.91 r13725"
   sodipodi:docname="text-x-lilypond.svg">
  <metadata
     id="metadata16">
    <rdf:RDF>
      <cc:Work
         rdf:about="">
        <dc:format>image/svg+xml</dc:format>
        <dc:type
           rdf:resource="http://purl.org/dc/dcmitype/StillImage" />
      </cc:Work>
    </rdf:RDF>
  </metadata>
  <defs
     id="defs14" />
  <sodipodi:namedview
     pagecolor="#ffffff"
     bordercolor="#666666"
     borderopacity="1"
     objecttolerance="10"
     gridtolerance="10"
     guidetolerance="10"
     inkscape:pageopacity="0"
     inkscape:pageshadow="2"
     inkscape:window-width="1366"
     inkscape:window-height="713"
     id="namedview12"
     showgrid="false"
     inkscape:zoom="10.429825"
     inkscape:cx="-2.2310623"
     inkscape:cy="11.604472"
     inkscape:window-x="0"
     inkscape:window-y="28"
     inkscape:window-maximized="1"
     inkscape:current-layer="svg2" />
  <path
     style="fill:#dcdcdc;fill-opacity:1"
     d="M 5.335888,2.969e-4 C 4.648414,3.119e-4 4,0.6767878 4,1.3940311 L 4,30.606268 C 4,31.282757 4.687474,32 5.335888,32 l 21.327332,0 c 0.648414,0 1.335888,-0.717243 1.335888,-1.393732 L 28,8.9999996 l -9,-9 z"
     id="path4-1"
     inkscape:connector-curvature="0"
     sodipodi:nodetypes="ssssssccs" />
  <path
     style="fill:#000000;fill-opacity:0.19599998"
     d="M 21,8.9999996 28,16 28,8.9999996 z"
     id="path6-4"
     inkscape:connector-curvature="0"
     sodipodi:nodetypes="cccc" />
  <path
     style="fill:#ffffff;fill-opacity:0.39200003"
     d="m 19.000306,2.969e-4 8.991594,8.9997027 -7.613262,0 c -0.672951,0 -1.378332,-0.7134896 -1.378332,-1.3864402 z"
     id="path8-6"
     inkscape:connector-curvature="0"
     sodipodi:nodetypes="ccssc" />
  <path
     style="fill:#555555;fill-opacity:1"
     d="M 16.800781 13.453125 C 16.023438 13.648438 15.371094 14.363281 15.371094 14.363281 L 15.394531 14.382812 L 16.636719 19.007812 C 15.746094 18.523438 14.476562 18.644531 13.425781 19.40625 C 12.066406 20.386719 11.59375 22.058594 12.378906 23.136719 C 13.167969 24.21875 14.902344 24.292969 16.261719 23.3125 C 17.332031 22.535156 17.929688 21.316406 17.714844 20.316406 C 17.707031 20.285156 17.695312 20.253906 17.6875 20.222656 L 16.496094 15.601562 C 16.523438 15.5625 16.871094 15.402344 18 15.324219 C 19.191406 15.246094 20 13.332031 20 13.332031 C 20 13.332031 18.65625 13.847656 17.601562 13.476562 C 17.335938 13.382812 17.058594 13.386719 16.800781 13.453125 Z "
     id="path10" />
</svg>

<svg xmlns="http://www.w3.org/2000/svg" viewBox="0 0 32 32">
 <path d="m 5.336 0 c -0.687 0 -1.336 0.676 -1.336 1.394 l 0 29.21 c 0 0.676 0.687 1.394 1.336 1.394 l 21.327 0 c 0.648 0 1.336 -0.717 1.336 -1.394 l 0.001 -21.606 l -9 -9 z" style="fill:#dcdcdc;fill-opacity:1"/>
 <path d="m 21 9 7 7 0 -7 z" style="fill:#000;fill-opacity:0.196"/>
 <path d="m 19 0 8.992 9 -7.613 0 c -0.673 0 -1.378 -0.713 -1.378 -1.386 z" style="fill:#fff;fill-opacity:0.392"/>
 <path d="m 16.801 13.453 c -0.777 0.195 -1.43 0.91 -1.43 0.91 l 0.023 0.02 l 1.242 4.625 c -0.891 -0.484 -2.16 -0.363 -3.211 0.398 c -1.359 0.98 -1.832 2.652 -1.047 3.73 c 0.789 1.082 2.523 1.156 3.883 0.176 c 1.07 -0.777 1.668 -1.996 1.453 -2.996 c -0.008 -0.031 -0.02 -0.063 -0.027 -0.094 l -1.191 -4.621 c 0.027 -0.039 0.375 -0.199 1.504 -0.277 c 1.191 -0.078 2 -1.992 2 -1.992 c 0 0 -1.344 0.516 -2.398 0.145 c -0.266 -0.094 -0.543 -0.09 -0.801 -0.023 Z" style="fill:#555;fill-opacity:1"/>
</svg>
